src/icons/outline/symbols/layout-dashboard.svg

<svg width="24" height="24" viewBox="0 0 24 24" fill="none" xmlns="http://www.w3.org/2000/svg">
<g clip-path="url(#clip0_402_542)">
<path d="M9.76758 15.2822C10.2054 15.2822 10.622 15.4532 10.9424 15.7627C11.2627 16.0722 11.4336 16.499 11.4443 16.9473V21.3242C11.4443 21.7725 11.2627 22.1993 10.9424 22.5195C10.622 22.829 10.2053 23 9.75684 23H2.6875V22.9893C1.7584 22.9893 1.00004 22.2421 1 21.3135V16.9473C1.00008 16.499 1.18163 16.0722 1.50195 15.7627C1.82234 15.4425 2.24964 15.2822 2.6875 15.2822H9.76758ZM21.3125 9.83887C21.761 9.83888 22.1884 10.0196 22.5088 10.3398C22.8291 10.66 22.9999 11.087 23 11.5352V21.3027C23 22.2314 22.2523 22.9892 21.3232 22.9893H14.2422V23C13.3133 22.9998 12.5557 22.242 12.5557 21.3135V11.5352C12.5558 11.087 12.7266 10.66 13.0469 10.3398C13.3671 10.0199 13.7833 9.84962 14.2422 9.83887H21.3125ZM2.60156 16.958V21.3135C2.60156 21.3135 2.63404 21.3877 2.67676 21.3877H9.75684L9.84277 21.3242V16.958L9.75684 16.8838H2.6875L2.60156 16.958ZM14.1572 11.5254V21.3027C14.1581 21.3051 14.1898 21.3873 14.2422 21.3877H21.3125C21.3173 21.3847 21.3975 21.3334 21.3975 21.292V11.5254L21.3125 11.4395H14.2422L14.1572 11.5254ZM9.76758 1C10.6967 1.02135 11.4551 1.77933 11.4551 2.70801V12.4746C11.4551 13.4033 10.7074 14.1611 9.77832 14.1611H2.6875C2.23903 14.1611 1.81158 13.9804 1.49121 13.6709C1.17082 13.3507 1 12.9229 1 12.4746V2.68652C1.00001 2.23828 1.17093 1.82216 1.49121 1.50195C1.8116 1.18172 2.23896 1 2.6875 1H9.76758ZM2.6875 2.60156C2.68489 2.60288 2.60161 2.64451 2.60156 2.68652V12.4746C2.60156 12.4746 2.64478 12.5605 2.6875 12.5605H9.75684C9.75684 12.5605 9.84277 12.5173 9.84277 12.4746V2.69727C9.84277 2.69727 9.79955 2.6123 9.75684 2.6123H2.6875V2.60156ZM21.3125 1.01074C22.2843 0.968062 22.9893 1.73637 23 2.66504V7.05176C23 7.98042 22.2843 8.71782 21.3125 8.72852H14.2314V8.71777C13.7937 8.71766 13.3769 8.54676 13.0566 8.2373C12.7363 7.92776 12.5557 7.50002 12.5557 7.05176V2.68652C12.5557 1.75799 13.3132 1.01098 14.2314 1.01074H21.3125ZM14.2422 2.61133C14.2375 2.61312 14.1572 2.64507 14.1572 2.68652V7.04199L14.2422 7.11621H21.3125C21.3149 7.1153 21.3969 7.08384 21.3975 7.04199V2.67578C21.3962 2.67292 21.3651 2.6007 21.3232 2.60059H14.2422V2.61133Z" fill="#212121"/>
</g>
<defs>
<clipPath id="clip0_402_542">
<rect width="24" height="24" fill="white"/>
</clipPath>
</defs>
</svg>

<svg xmlns="http://www.w3.org/2000/svg" width="24" height="24" fill="none" viewBox="0 0 24 24"><g clip-path="url(#a)"><path fill="currentColor" d="M9.768 15.282c.437 0 .854.171 1.174.48.32.31.492.737.502 1.185v4.377c0 .448-.181.875-.502 1.195-.32.31-.737.481-1.185.481h-7.07v-.01A1.683 1.683 0 0 1 1 21.313v-4.367c0-.448.182-.875.502-1.184.32-.32.748-.48 1.186-.48zM21.313 9.84A1.69 1.69 0 0 1 23 11.535v9.768c0 .928-.748 1.686-1.677 1.686h-7.08V23a1.69 1.69 0 0 1-1.687-1.686v-9.779c0-.448.17-.875.49-1.195a1.72 1.72 0 0 1 1.196-.501zM2.602 16.958v4.356s.032.074.075.074h7.08l.086-.064v-4.366l-.086-.074h-7.07zm11.555-5.433v9.778c.001.002.033.084.085.085h7.07c.005-.003.085-.055.085-.096v-9.767l-.084-.085h-7.07zM9.767 1c.93.021 1.688.78 1.688 1.708v9.767c0 .928-.748 1.686-1.677 1.686h-7.09c-.449 0-.876-.18-1.197-.49A1.68 1.68 0 0 1 1 12.475V2.687c0-.449.17-.865.491-1.185S2.24 1 2.688 1zm-7.08 1.602c-.002 0-.085.043-.085.085v9.788s.043.085.086.085h7.069s.086-.043.086-.085V2.697s-.043-.085-.086-.085h-7.07zM21.314 1.01c.971-.043 1.676.725 1.687 1.654v4.387c0 .928-.716 1.666-1.687 1.677H14.23v-.011c-.437 0-.854-.171-1.174-.48a1.65 1.65 0 0 1-.501-1.186V2.687c0-.929.757-1.676 1.675-1.676zm-7.07 1.6c-.005.002-.086.034-.086.076v4.355l.085.074h7.07c.003 0 .085-.032.085-.074V2.676c0-.003-.032-.075-.074-.075h-7.08z"/></g><defs><clipPath id="a"><path fill="currentColor" d="M0 0h24v24H0z"/></clipPath></defs></svg>
